img/icons/facebook.svg

<svg width="10" height="19" viewBox="0 0 10 19" fill="none" xmlns="http://www.w3.org/2000/svg">
<path d="M6.32586 10.2918H9.3036L9.77113 7.24834H6.32525V5.58498C6.32525 4.32069 6.73585 3.1996 7.91132 3.1996H9.80019V0.543695C9.46833 0.498608 8.76643 0.399902 7.44017 0.399902C4.67075 0.399902 3.04713 1.87134 3.04713 5.22366V7.24834H0.200195V10.2918H3.04713V18.6567C3.61095 18.742 4.18203 18.7999 4.76825 18.7999C5.29815 18.7999 5.81534 18.7512 6.32586 18.6817V10.2918Z" fill="#273C8D"/>
</svg>

<svg width="10" height="19" fill="none" xmlns="http://www.w3.org/2000/svg"><path d="M6.326 10.292h2.978l.467-3.044H6.325V5.585c0-1.264.41-2.385 1.586-2.385h1.89V.544C9.467.499 8.765.4 7.44.4 4.67.4 3.046 1.87 3.046 5.224v2.024H.2v3.044h2.847v8.365c.564.085 1.135.143 1.721.143.53 0 1.047-.049 1.558-.118v-8.39z" fill="#273C8D"/></svg>
